X:1
T:Ookpik Waltz
M:3/4
L:1/4
Q:120
R:waltz
K:Em
|(3D/E/F/|G> A B/d/|A F E/D/|E G> A|G B d|e>d e/f/|e d (3d/B/A/|B d>e|d2 g/f/|
e>d e/f/|e d (3d/B/A/|B d (3B/A/G/|E E D|C> B, C/E/|D F (3F/E/D/|E G>A|G B d|]
e B>A|B2 e|d B>A|B2 B|A>G A/B/|A G (3G/E/D/|E G A|G B d|
e B>A|B>d e|d B>A|B2 B|A>G A/B/|A G E/D/|E G (3G/F/E/|D2|]
</abc>
